X:1
T:[ID 2-65a]
T:[ID 2-65a]
T:Bezeichnung standardisiert: Tantz Tantz
T:Urheber unbekannt Datum in der hier transkribierten schriftlichen Quelle: 1767
C:Urheber unbekannt
C:Datum in der hier transkribierten schriftlichen Quelle: 1767
L:1/8
M:2/4
K:G
V:1 treble 
V:1
 BB/G/ B,B, | B,2 z c | BG AG | GF z g | f2 e2 | d/e/ f2 g | f2 e2 | d/e/ f2 e | dc/B/ A/G/F/E/ | %9
 F2 F2 :: ff/d/ FF | F2 z b | baag | fF z c | B2 A2 | G/e/d/c/ Bc | B2 A2 | G/e/d/c/ BA | %18
 GF/E/ D/C/B,/A,/ | B,2 B,2 :| %20

